X: 85
T: Preludium Es-dur
C: Maria Szymanowska
%%abc-version 2.0
%%abcx-abcm2ps-target-version 5.9.1 (29 Sep 2008)
%%abc-creator hum2abc beta
%%abcx-conversion-date 2021/10/04 07:38:41
%%abc-edited-by Anna Matuszewska
%%abcx-initial-encoding-date 2020-07-20
%%humdrum-veritas 988543235
%%humdrum-veritas-data 1115108169
%%linebreak <none>
%%barnumbers 0
L: 1/8
M: C
N: Derived from pl-kozmzk--mzk-m-31--012_szymanowska-maria--preludium-es-dur.krn
%%staves {1 2}
V: 1 clef=treble
V: 2 clef=bass
K: Eb
[V:1] z4!accent!!fermata![A4B4f4] | 
[V:2] !fermata![D,,8D,8] | 
[V:1] !wedge!g[GB]!wedge!f[GB] !wedge!e[GB]!wedge!d[GB] | 
[V:2] E,,[E,G,]E,,[E,G,] E,,[E,G,]E,,[E,G,] | 
[V:1] !wedge!c[EA]!wedge!d[EA] !wedge!e[EA]!wedge!c[EA] | 
[V:2] A,,[A,C]A,,[A,C] A,,[A,C]A,,[A,C] | 
[V:1] B[FA]!accent!_c[FA] B[FA]d[FA] | 
[V:2] B,,[B,D]B,,[B,D] B,,[B,D]B,,[B,D] | 
[V:1] e[GB]g[GB] f[AB]b[AB] | 
[V:2] E,,[E,G,]E,,[E,G,] E,,[D,F,]E,,[D,F,] | 
[V:1] g[GB]f[GB] e[GB]d[GB] | 
[V:2] E,,[E,G,]E,,[E,G,] E,,[E,G,]E,,[E,G,] | 
[V:1] c[EA]!accent!e[EA] d[EA]c[EA] | 
[V:2] A,,[A,C]A,,[A,C] A,,[A,C]A,,[A,C] | 
[V:1] B[FA]!accent!_c[FA] B[FA]d[FA] | 
[V:2] B,,[B,D]B,,[B,D] B,,[B,D]B,,[B,D] | 
[V:1] e[GB]g[GB] f[AB]b[AB] | 
[V:2] E,,[E,G,]E,,[E,G,] E,,[D,F,]E,,[D,F,] | 
[V:1] g[GB]e[GB] f[AB]b[AB] | 
[V:2] E,,[E,G,]E,,[E,G,] E,,[D,F,]E,,[D,F,] | 
[V:1] g[GB]g[GB] !accent!g[F=B]f[FB] | 
[V:2] E,,[E,G,]E,,[E,G,] G,,[G,=B,]G,,[G,B,] | 
[V:1] !accent!f[Gc]e[Gc] !accent!e[FA]_d[FA] | 
[V:2] C,[E,C]C,[E,C] F,,[_D,F,]F,,[D,A,] | 
[V:1] !accent!_d[EG]c[EG] !accent!c[DF]=B[DF] | 
[V:2] G,,[E,G,]G,,[E,G,] G,,[F,=B,]G,,[F,B,] | 
[V:1] !accent!=d[EA]c[EA] !accent!d[E^F]c[EF] | 
[V:2] A,,[E,C]A,,[E,C] =A,,[^F,C]A,,[F,C] | 
[V:1] B[EG] g[GB] g[GB]f[AB] | 
[V:2] B,,[G,B,] B,,[G,E] B,,[G,E] B,,[A,D] | 
[V:1] e[GB]b[GB] b[GB]a[AB] | 
[V:2] B,,[G,E]B,,[G,E] B,,[G,E]B,,[F,D] | 
[V:1] g[GB]g[GB] g[GB]f[AB] | 
[V:2] B,,[G,E]B,,[G,E] B,,[G,E]B,,[A,D] | 
[V:1] e[GB]g[GB] g[E=A]f[EA] | 
[V:2] B,,[G,E]B,,[G,E] =A,,[F,C]A,,[F,C] | 
[V:1] !accent!g[FB]f[FB] !accent!f[Gc]e[Gc] | 
[V:2] B,,[F,D]B,,[F,D] E,,[E,G,]E,,[E,G,] | 
[V:1] !accent!e[FB]d[FB] !accent!d[E=A]c[EA] | 
[V:2] F,,[D,B,]F,,[D,B,] F,,[E,=A,]F,,[E,A,] | 
[V:1] !accent!g[FB]f[FB] =a[Ge]g[Ge] | 
[V:2] D,,[B,,F,]D,,[B,,F,] E,,[E,G,]E,,[E,G,] | 
[V:1] !accent!=b[ce]=a[ce] c'[dg]b[dg] | 
[V:2] F,,[E,=A,]F,,[E,A,] G,,[D,B,]G,,[D,B,] | 
[V:1] d'[ef]c'[ef] e'[df]d'[df] | 
[V:2] =A,,[F,C]A,,[F,C] B,,[F,D]B,,[F,D] | 
[V:1] b'[c'e']=a'[c'e'] c''[d'f']b'[d'f'] | 
[V:2] C,[=A,F]C,[A,F] D,[B,F]D,[B,F] | 
[V:1] =a'[be']g'[be'] =a'[b_d']g'[bd'] | 
[V:2] E,[B,G]E,[B,G] =E,[_DG]E,[DG] | 
[V:1] f'[fb=d']f'[fbd'] f'[fbc']f'[f=ac'] | 
[V:2] F,[B,D=F]F,[B,DF] F,[B,CF][F,D][=A,CF] | 
[V:1] [b2d'2]_g'[_gb_d']g'[gbd'] =e'[gb_d'] | 
[V:2] [B,2D2]_G,[B,_D_G]G,[B,DG] _G,[B,_D=E] | 
[V:1] f'[fb_d']f'[fbd'] f'[f=ac']f'[fac'] | 
[V:2] F,[B,_DF]F,[B,DF] F,[=A,CF]F,[A,CF] | 
[V:1] [b2_d'2]_g'[_gb_d'] =e'[_gbc']e'[gbc'] | 
[V:2] [B,2_D2]_G,[_B,D_G] G,[B,C=E]G,[B,CE] | 
[V:1] f'[fb=d']f'[fb_d'] f'[fbc']f'[f=ac'] | 
[V:2] F,[B,=DF]F,[B,DF] F,[B,CF]F,[=A,CF] | 
[V:1] !wedge!d'[df]!wedge!c'[df] !wedge!b[df]!wedge!=a[df] | 
[V:2] B,,[B,D]B,,[B,D] B,,[B,D]B,,[B,D] | 
[V:1] g[Be]=a[Be] b[Be]g[Be] | 
[V:2] E,,[E,G,]E,,[E,G,] E,,[E,G,]E,,[E,G,] | 
[V:1] f[ce]!accent!_g[ce] f[ce]=a[ce] | 
[V:2] F,,[C,=A,]F,,[C,A,] F,,[C,A,]F,,[C,A,] | 
[V:1] b[df]d'[df] c'[ef]f'[ef] | 
[V:2] B,,[F,D]B,,[F,D] B,,[F,E]B,,[F,E] | 
[V:1] d'[df]c'[df] b[df]=a[df] | 
[V:2] B,,[B,D]B,,[B,D] B,,[B,D]B,,[B,D] | 
[V:1] g[Be]b[Be] =a[Be]g[Be] | 
[V:2] E,,[E,G,]E,,[E,G,] E,,[E,G,]E,,[E,G,] | 
[V:1] f[ce]!accent!_g[ce] f[ce]=a[ce] | 
[V:2] F,,[C,=A,]F,,[C,A,] F,,[C,A,]F,,[C,A,] | 
[V:1] b[df]d'[df] c'[ef]f'[ef] | 
[V:2] B,,[F,D]B,,[F,D] B,,[F,E]B,,[F,E] | 
[V:1] d'[df]b[df] c'[ef]f'[ef] | 
[V:2] B,,[F,D]B,,[F,D] B,,[F,E]B,,[F,E] | 
[V:1] d'[df]d'[df] !accent!d'[d^f]c'[df] | 
[V:2] B,,[F,D]B,,[F,D] B,,[A,^F]D,[A,F] | 
[V:1] c'[dg]b[dg] !accent!d'[cg]c'[cg] | 
[V:2] G,[DG]G,[DG] =E,[CG]E,[CG] | 
[V:1] b[cf]=a[cf] !accent!c'[Bf]b[Bf] | 
[V:2] F,[CF]F,[CF] D,[B,F]D,[B,F] | 
[V:1] =a[B=e]g[Be] !accent!b[Ae]a[Ae] | 
[V:2] =E,[_B,=E]E,[B,E] ^C,[=A,=E]C,[A,E] | 
[V:1] g[=Ad]f[Ad] !accent!=a[Gd]g[Gd] | 
[V:2] D,[A,D]D,[A,D] =B,,[G,D]B,,[G,D] | 
[V:1] =e[Gc]g[Gc] =a[G=B]g[GB] | 
[V:2] C,[G,=E]C,[G,E] C,[G,F]C,[G,F] | 
[V:1] c'[Gc]g[Gc] =a[G=B]g[GB] | 
[V:2] C,[G,=E]C,[G,E] C,[G,F]C,[G,F] | 
[V:1] _e[Gc]g[Gc] _a[G=B]g[GB] | 
[V:2] C,[G,_E]C,[G,E] C,[G,F]C,[G,F] | 
[V:1] c'[Gc]g[Gc] !accent!_a[G=B]g[GB] | 
[V:2] C,[G,_E]C,[G,E] C,[G,F]C,[G,F] | 
[V:1] g[Gc]g[Gc] g[Fce]f[Fce] | 
[V:2] C,[G,E]C,[G,E] =A,,[F,C]A,,[F,C] | 
[V:1] b[FBd]f[FBd] g[Fce]f[Fce] | 
[V:2] B,,[F,D]B,,[F,D] =A,,[F,C]A,,[F,C] | 
[V:1] f[FBd]f[FBd] !accent!g[Fce]f[Fce] | 
[V:2] B,,[F,B,]B,,[F,B,] =A,,[F,C]A,,[F,C] | 
[V:1] !accent!g[FBd]f[FBd] g[FBd]f[FBd] | 
[V:2] B,,[D,B,]B,,[D,B,] __A,,[D,F,B,]A,,[D,F,B,] | 
[V:1] !accent!c'[eg]b[eg] !accent!b[cf]a[cf] | 
[V:2] G,,[E,B,]G,,[E,B,] A,,[A,C]A,,[A,C] | 
[V:1] !accent!a[Be]g[Be] !accent!g[Ad]f[Ad] | 
[V:2] B,,[B,E]B,,[B,E] B,,[A,B,D]B,,[A,B,D] | 
[V:1] !accent!c'[Be]b[Be] !accent!d'[cf]c'[cf] | 
[V:2] G,,[E,B,]G,,[E,B,] A,,[A,C]A,,[A,C] | 
[V:1] e'[fa]d'[fa] f'[gc']e'[gc'] | 
[V:2] B,,[A,D]B,,[A,D] C,[G,E]C,[G,E] | 
[V:1] g'[ab]f'[ab] a'[gb]g'[gb] | 
[V:2] D,[B,F]D,[B,F] E,[B,G]E,[B,G] | 
[V:1] e'[fa]d'[fa] f'[gb]e'[gb] | 
[V:2] [K:clef=treble]F,[DB]F,[DB] G,[EB]G,[EB] | 
[V:1] d'[ea]c'[ea] d'[e^f]c'[ef] | 
[V:2] A,[Ec]A,[Ec] =A,[^Fc]A,[Fc] | 
[V:1] b[Beg]b[Beg] b[Bef]b[Bdf] | 
[V:2] B,[EGB][K:clef=bass] B,,[E,G,B,] D,[E,F,B,]D,[D,F,B,] | 
[V:1] [e2g2]_c'[_ce_g] c'[ceg] =a[ceg] | 
[V:2] [E,2G,2]_C,[E,_G,_C] C,[E,G,C] C,[E,G,=A,] | 
[V:1] b[Be_g]b[Beg] b[Bdf]b[Bdf] | 
[V:2] B,,[E,_G,B,]B,,[E,G,B,] B,,[D,F,B,]B,,[D,F,B,] | 
[V:1] [e2_g2]_c'[_ce_g] c'[ceg] =a[=Aeg] | 
[V:2] [E,2_G,2]_C,[E,G,_C] C,[E,G,C] =C,=C | 
[V:1]  [K:E] g[Gce]g[Gce] f[Fce]b[Bdf] | 
[V:2]  [K:E] C,CG,,G, A,,A,B,,B, | 
[V:1] g[GB]f[GB] e[GB]d[GB] | 
[V:2] E,[B,E]E,[B,E] E,[B,E]E,[B,E] | 
[V:1] !wedge!c[EA]d!wedge![EA] e[EA]c[EA] | 
[V:2] A,,[E,A,]A,,[E,A,] A,,[E,A,]A,,[E,A,] | 
[V:1] B[FA]!accent!=c[FA] B[FA]d[FA] | 
[V:2] B,,[F,B,]B,,[F,B,] B,,[F,B,]B,,[F,B,] | 
[V:1]  [K:Eb] =e[^G=B]e[GB] f[AB]!accent!^f[AB] | 
[V:2]  [K:Eb] =E,[=B,=E]E,[B,E] !wedge!D,[B,D]D,[B,D] | 
[V:1] g[GB]f[GB] e[GB]d[GB] | 
[V:2] E,[B,E]E,[B,E] E,[B,E]E,[B,E] | 
[V:1] c[EA]!accent!e[EA] d[EA]c[EA] | 
[V:2] A,,[A,C]A,,[A,C] A,,[A,C]A,,[A,C] | 
[V:1] B[FA]_c[FA] B[FA]d[FA] | 
[V:2] B,,[B,D]B,,[B,D] B,,[B,D]B,,[B,D] | 
[V:1] e[GB]g[GB] f[AB]b z | 
[V:2] E,,[E,G,]E,,[E,G,] E,,[D,F,]E,,[D,F,] | 
[V:1] !wedge![gb]g'!wedge![gb]f' [gb]e'[gb]d' | 
[V:2] [E,G,]E,,[E,G,]E,, [E,G,]E,,[E,G,]E,, | 
[V:1] [ea]c'[ea]d' [ea]e'[ea]c' | 
[V:2] [A,C]A,,[A,C]A,, [A,C]A,,[A,C]A,, | 
[V:1] [fa]b[fa]_c' [fa]=c'[fa]d' | 
[V:2] [B,D]B,,[B,D]B,, [B,D]B,,[B,D]B,, | 
[V:1] [gb]e'[gb]g' [ab]f'[ab]b' | 
[V:2] [E,G,]E,,[E,G,]E,, [D,F,]E,,[D,F,]E,, | 
[V:1] [gb]g'[gb]e' [ab]f'[ab]b' | 
[V:2] [E,G,]E,,[E,G,]E,, [D,F,]E,,[D,F,]E,, | 
[V:1] [gb]b'[ab]b' [gb]b'[ab]b' | 
[V:2] [E,G,]E,,[D,F,]E,, [E,G,]E,,[D,F,]E,, | 
[V:1] [gb]b'[ab]b' [gb]b'[ab]b' | 
[V:2] [E,G,]E,,[D,F,]E,, [E,G,]E,,[D,F,]E,, | 
[V:1] [g2b2]z2[G2B2e2g2]z2 | 
[V:2] [E,2G,2]z2[E,2G,2B,2E2]z2 | 
[V:1] !fermata![G,6B,6E6]x2 |]  
[V:2] !fermata![E,,6E,6]x2 |]  


